X:1
T:And His Glory I Know
T:And His Glory I Know
T:George Thomas Byrd
T:George Thomas Byrd, 1904
T:Public Domain Courtesy of the Cyber Hymnal™
T:Public Domain Courtesy of the Cyber Hymnal™
C:George Thomas Byrd
Z:Public Domain
Z:Courtesy of the Cyber Hymnal™
%%score ( 1 2 ) ( 3 4 )
L:1/8
Q:1/4=103
M:4/4
K:Ab
V:1 treble 
V:2 treble 
V:3 bass 
V:4 bass 
V:1
 [A,C]>[B,D] | [CE]2 [Ec]2 [CA]2 E>E | [DF]2 [FA]2 [FA]2 ([EG]>[DF]) | [CE]2 [EA]2 [Ec]2 [EA]2 | %4
w: 1.~Je- sus|came to me, and He|touched my eyes, When *|I was blind- ed|
w: 2.~Je- sus|stays with me, and He|keeps my soul, Wher- *|e’er I chance to|
w: 3.~Je- sus|washed my life with His|pre- cious blood, I’m *|whit- er than the|
w: 4.~Je- sus|dwells in me, I will|shout and sing, My *|heart is all a-|
w: 5.~Je- sus|will come down and will|say, “Well done!” A- *|way with Him I’ll|
 [EB]6 [Ec]>[Ed] | [Ae]2 [Ae]2 [Ae]2 ([Ec]>[=EB]) | [FA]2 [DF]2 !fermata![FA]2 [EG]>[DF] | %7
w: so; And He|gave to me my *|per- fect sight, And His|
w: go; For He|cleansed my heart and *|made me whole, And His|
w: snow; I am|ful- ly re- con- *|ciled to God, And His|
w: glow; I am|look- ing for my *|glor- ious king, For His|
w: go; And we’ll|fly be- yond the *|set- ting sun, For His|
 [CE]2 [Ec]4 [DB]2 | [CA]6 ||"^Refrain" [Ec]>[Ee] | [Af]2 [Ae]4 [Ec]2 | [Ae]6 [Ac]>[GB] | %12
w: glo- ry I|know.||||
w: glo- ry I|know.||||
w: glo- ry I|know.|And His|glo- ry I|know, and His|
w: glo- ry I|know.||||
w: glo- ry I|know.||||
 [FA]2 [FA]4 [Ec]2 | [EB]6 [Ec]>[Ed] | [Ae]2 [Ae]2 [Ae]2 [Ec]>[=EB] | %15
w: |||
w: |||
w: glo- ry I|know; Je- sus|touched my heart, and He|
w: |||
w: |||
 [FA]2 [DF]2 !fermata![FA]2 [EG]>[DF] | [CE]2 [Ec]4 [DB]2 | [CA]6 |] %18
w: |||
w: |||
w: made me whole, And His|glo- ry I|know.|
w: |||
w: |||
V:2
 x2 | x6 E>E | x8 | x8 | x8 | x8 | x8 | x8 | x6 || x2 | x8 | x8 | x8 | x8 | x8 | x8 | x8 | x6 |] %18
V:3
 [A,,E,]>[A,,E,] | [A,,A,]2 [A,,A,]2 [A,,A,]2 [B,,G,]>[D,A,] | [D,A,]2 [D,D]2 [D,D]2 [D,A,]2 | %3
 [A,,A,]2 [A,,C]2 A,2 [C,A,]2 | [E,G,]6 A,>[A,B,] | [A,C]2 [A,C]2 [A,C]2 A,>[C,A,] | %6
 [D,D]2 [D,D]2 !fermata![D,D]2 [D,A,]>[D,A,] | [E,A,]2 [E,A,]4 [E,G,]2 | [A,,A,]6 || A,>[A,C] | %10
 [A,D][A,D] [A,C]2 [A,C]2 A,>A, | [A,C][A,C] [A,C]2 [A,C]2 [A,E]>[E,D] | %12
 [F,C][F,C] [F,C]2 [F,C]2 A,2 | [E,G,]6 A,>[A,B,] | [A,C]2 [A,C]2 [A,C]2 A,>[C,A,] | %15
 [D,D]2 [D,D]2 !fermata![D,D]2 [D,A,]>[D,A,] | [E,A,]2 [E,A,]4 [E,G,]2 | [A,,A,]6 |] %18
V:4
 x2 | x8 | x8 | x4 A,2 x2 | x6 A,3/2 x/ | x6 A,3/2 x/ | x8 | x8 | x6 || A,3/2 x/ | x6 (A,>A,) | %11
 x8 | x6 A,2 | x6 A,3/2 x/ | x6 A,3/2 x/ | x8 | x8 | x6 |] %18

